; generated by PrusaSlicer 2.1.0+win64 on 2020-02-29 at 13:54:52 UTC

; 

; external perimeters extrusion width = 0.45mm
; perimeters extrusion width = 0.45mm
; infill extrusion width = 0.45mm
; solid infill extrusion width = 0.45mm
; top infill extrusion width = 0.45mm
; first layer extrusion width = 0.42mm

M73 P0 R84
M201 X9000 Y9000 Z500 E10000 ; sets maximum accelerations, mm/sec^2
M203 X500 Y500 Z12 E120 ; sets maximum feedrates, mm/sec
M204 P2000 R1500 T2000 ; sets acceleration (P, T) and retract acceleration (R), mm/sec^2
M205 X10.00 Y10.00 Z0.20 E2.50 ; sets the jerk limits, mm/sec
M205 S0 T0 ; sets the minimum extruding and travel feed rate, mm/sec
M107
M862.3 P "MK2S" ; printer model check
M862.1 P0.4 ; nozzle diameter check
M115 U3.2.3 ; tell printer latest fw version
G90 ; use absolute coordinates
M83 ; extruder relative mode
M204 S2000 T1500 ; MK2 firmware only supports the old M204 format
M104 S215 ; set extruder temp
M140 S60 ; set bed temp
M190 S60 ; wait for bed temp
M109 S215 ; wait for extruder temp
G28 W ; home all without mesh bed level
G80 ; mesh bed leveling
G1 Y-3.0 F1000.0 ; go outside print area
G92 E0.0
G1 X60.0 E9.0  F1000.0 ; intro line
M73 P0 R84
G1 X100.0 E12.5 F1000.0 ; intro line
G92 E0.0
G21 ; set units to millimeters
G90 ; use absolute coordinates
M83 ; use relative distances for extrusion
M900 K30 ; Filament gcode
;BEFORE_LAYER_CHANGE
G92 E0.0
;0.2


G1 E-0.80000 F2100.00000
G1 Z0.600 F10800.000
;AFTER_LAYER_CHANGE
;0.2
G1 X77.648 Y74.295
G1 Z0.200
G1 E0.80000 F2100.00000
M204 S1000
G1 F1200
G1 X77.970 Y73.788 E0.01885
G1 X78.415 Y73.389 E0.01873
G1 X78.954 Y73.124 E0.01885
G1 X79.542 Y73.016 E0.01873
G1 X99.550 Y72.681 E0.62741
G1 X114.575 Y72.681 E0.47112
G1 X175.026 Y72.970 E1.89543
G1 X195.424 Y73.257 E0.63962
G1 X196.225 Y73.421 E0.02563
G1 X196.907 Y73.865 E0.02552
G1 X197.386 Y74.540 E0.02597
G1 X197.580 Y75.346 E0.02597
G1 X197.886 Y95.215 E0.62306
G1 X198.035 Y150.507 E1.73363
G1 X197.875 Y151.312 E0.02574
G1 X197.428 Y152.001 E0.02574
G1 X196.750 Y152.482 E0.02608
G1 X195.937 Y152.675 E0.02620
G1 X180.842 Y152.677 E0.47330
G1 X80.077 Y152.435 E3.15943
G1 X79.268 Y152.273 E0.02586
G1 X78.579 Y151.827 E0.02574
G1 X78.085 Y151.117 E0.02709
G1 X77.904 Y150.272 E0.02709
G1 X77.451 Y90.211 E1.88324
G1 X77.451 Y75.177 E0.47137
G1 X77.635 Y74.354 E0.02645
G1 F8640
G1 X77.970 Y73.788 E-0.15191
G1 X78.415 Y73.389 E-0.13797
G1 X78.954 Y73.124 E-0.13881
G1 X79.542 Y73.016 E-0.13797
G1 X80.379 Y73.002 E-0.19334
G1 E-0.04000 F2100.00000
G1 Z0.800 F10800.000
G1 X100.159 Y75.457
G1 Z0.200
G1 E0.80000 F2100.00000
G1 F1200
G1 X113.984 Y75.457 E0.43350
G1 X113.984 Y89.283 E0.43350
G1 X100.159 Y89.283 E0.43350
G1 X100.159 Y75.517 E0.43162
G1 X99.782 Y75.080 F10800.000
G1 F1200
G1 X114.362 Y75.080 E0.45715
G1 X114.362 Y89.660 E0.45715
G1 X99.782 Y89.660 E0.45715
G1 X99.782 Y75.140 E0.45526
G1 X100.168 Y75.183 F10800.000
G1 F8640
G1 X103.073 Y75.126 E-0.76000
G1 E-0.04000 F2100.00000
G1 Z0.800 F10800.000
G1 X100.272 Y88.405
G1 Z0.200
G1 E0.80000 F2100.00000
G1 F1200
G1 X100.866 Y89.000 E0.02645
G1 X101.401 Y89.000 E0.01682
G1 X100.441 Y88.040 E0.04268
G1 X100.441 Y87.505 E0.01682
G1 X101.936 Y89.000 E0.06647
G1 X102.471 Y89.000 E0.01682
G1 X100.441 Y86.970 E0.09025
G1 X100.441 Y86.436 E0.01682
G1 X103.006 Y89.000 E0.11403
G1 X103.540 Y89.000 E0.01682
G1 X100.441 Y85.901 E0.13781
G1 X100.441 Y85.366 E0.01682
G1 X104.075 Y89.000 E0.16159
G1 X104.610 Y89.000 E0.01682
G1 X100.441 Y84.831 E0.18537
G1 X100.441 Y84.296 E0.01682
G1 X105.145 Y89.000 E0.20916
G1 X105.680 Y89.000 E0.01682
G1 X100.441 Y83.762 E0.23294
G1 X100.441 Y83.227 E0.01682
G1 X106.214 Y89.000 E0.25672
G1 X106.749 Y89.000 E0.01682
G1 X100.441 Y82.692 E0.28050
G1 X100.441 Y82.157 E0.01682
G1 X107.284 Y89.000 E0.30428
G1 X107.819 Y89.000 E0.01682
G1 X100.441 Y81.622 E0.32806
G1 X100.441 Y81.088 E0.01682
G1 X108.354 Y89.000 E0.35185
G1 X108.888 Y89.000 E0.01682
G1 X100.441 Y80.553 E0.37563
G1 X100.441 Y80.018 E0.01682
G1 X109.423 Y89.000 E0.39941
G1 X109.958 Y89.000 E0.01682
G1 X100.441 Y79.483 E0.42319
G1 X100.441 Y78.948 E0.01682
G1 X110.493 Y89.000 E0.44697
G1 X111.028 Y89.000 E0.01682
G1 X100.441 Y78.414 E0.47075
G1 X100.441 Y77.879 E0.01682
G1 X111.562 Y89.000 E0.49454
G1 X112.097 Y89.000 E0.01682
G1 X100.441 Y77.344 E0.51832
G1 X100.441 Y76.809 E0.01682
G1 X112.632 Y89.000 E0.54210
G1 X113.167 Y89.000 E0.01682
G1 X100.441 Y76.274 E0.56588
G1 X100.441 Y75.740 E0.01682
G1 X113.702 Y89.000 E0.58966
G1 X113.702 Y88.465 E0.01681
G1 X100.976 Y75.740 E0.56589
G1 X101.511 Y75.740 E0.01682
G1 X113.702 Y87.930 E0.54211
G1 X113.702 Y87.396 E0.01682
G1 X102.046 Y75.740 E0.51832
G1 X102.581 Y75.740 E0.01682
G1 X113.702 Y86.861 E0.49454
G1 X113.702 Y86.326 E0.01682
G1 X103.115 Y75.740 E0.47076
G1 X103.650 Y75.740 E0.01682
G1 X113.702 Y85.791 E0.44698
G1 X113.702 Y85.256 E0.01682
G1 X104.185 Y75.740 E0.42320
G1 X104.720 Y75.740 E0.01682
G1 X113.702 Y84.722 E0.39941
G1 X113.702 Y84.187 E0.01682
G1 X105.255 Y75.740 E0.37563
G1 X105.789 Y75.740 E0.01682
G1 X113.702 Y83.652 E0.35185
G1 X113.702 Y83.117 E0.01682
G1 X106.324 Y75.740 E0.32807
G1 X106.859 Y75.740 E0.01682
G1 X113.702 Y82.582 E0.30429
G1 X113.702 Y82.048 E0.01682
G1 X107.394 Y75.740 E0.28051
G1 X107.929 Y75.740 E0.01682
G1 X113.702 Y81.513 E0.25672
G1 X113.702 Y80.978 E0.01682
G1 X108.463 Y75.740 E0.23294
G1 X108.998 Y75.740 E0.01682
G1 X113.702 Y80.443 E0.20916
G1 X113.702 Y79.908 E0.01682
G1 X109.533 Y75.740 E0.18538
G1 X110.068 Y75.740 E0.01682
G1 X113.702 Y79.374 E0.16160
G1 X113.702 Y78.839 E0.01682
G1 X110.603 Y75.740 E0.13782
G1 X111.137 Y75.740 E0.01682
G1 X113.702 Y78.304 E0.11403
G1 X113.702 Y77.769 E0.01682
G1 X111.672 Y75.740 E0.09025
G1 X112.207 Y75.740 E0.01682
G1 X113.702 Y77.234 E0.06647
G1 X113.702 Y76.700 E0.01682
G1 X112.742 Y75.740 E0.04269
G1 X113.276 Y75.740 E0.01682
G1 X113.871 Y76.334 E0.02645
G1 F8640
G1 X113.276 Y75.740 E-0.19425
G1 X112.742 Y75.740 E-0.12349
G1 X113.702 Y76.700 E-0.31348
G1 X113.702 Y77.234 E-0.12349
G1 X113.685 Y77.218 E-0.00529
G1 E-0.04000 F2100.00000
G1 Z0.800 F10800.000
G1 X120.577 Y75.854
G1 Z0.200
G1 E0.80000 F2100.00000
G1 F1200
G1 X134.402 Y75.854 E0.43350
G1 X134.402 Y89.680 E0.43350
G1 X120.577 Y89.680 E0.43350
G1 X120.577 Y75.914 E0.43162
G1 X120.199 Y75.477 F10800.000
G1 F1200
G1 X134.779 Y75.477 E0.45715
G1 X134.779 Y90.057 E0.45715
G1 X120.199 Y90.057 E0.45715
M73 P1 R83
G1 X120.199 Y75.537 E0.45526
G1 X120.586 Y75.580 F10800.000
G1 F8640
G1 X123.491 Y75.523 E-0.76000
G1 E-0.04000 F2100.00000
G1 Z0.800 F10800.000
G1 X120.690 Y88.802
G1 Z0.200
G1 E0.80000 F2100.00000
G1 F1200
G1 X121.284 Y89.397 E0.02645
G1 X121.819 Y89.397 E0.01682
G1 X120.859 Y88.437 E0.04268
G1 X120.859 Y87.902 E0.01682
G1 X122.354 Y89.397 E0.06647
G1 X122.889 Y89.397 E0.01682
G1 X120.859 Y87.367 E0.09025
G1 X120.859 Y86.832 E0.01682
G1 X123.424 Y89.397 E0.11403
G1 X123.958 Y89.397 E0.01682
G1 X120.859 Y86.298 E0.13781
G1 X120.859 Y85.763 E0.01682
G1 X124.493 Y89.397 E0.16159
G1 X125.028 Y89.397 E0.01682
G1 X120.859 Y85.228 E0.18537
G1 X120.859 Y84.693 E0.01682
G1 X125.563 Y89.397 E0.20916
G1 X126.098 Y89.397 E0.01682
G1 X120.859 Y84.158 E0.23294
G1 X120.859 Y83.624 E0.01682
G1 X126.632 Y89.397 E0.25672
G1 X127.167 Y89.397 E0.01682
G1 X120.859 Y83.089 E0.28050
G1 X120.859 Y82.554 E0.01682
G1 X127.702 Y89.397 E0.30428
G1 X128.237 Y89.397 E0.01682
G1 X120.859 Y82.019 E0.32806
G1 X120.859 Y81.485 E0.01682
G1 X128.772 Y89.397 E0.35185
G1 X129.306 Y89.397 E0.01682
G1 X120.859 Y80.950 E0.37563
G1 X120.859 Y80.415 E0.01682
G1 X129.841 Y89.397 E0.39941
G1 X130.376 Y89.397 E0.01682
G1 X120.859 Y79.880 E0.42319
G1 X120.859 Y79.345 E0.01682
G1 X130.911 Y89.397 E0.44697
G1 X131.446 Y89.397 E0.01682
G1 X120.859 Y78.811 E0.47075
G1 X120.859 Y78.276 E0.01682
G1 X131.980 Y89.397 E0.49454
G1 X132.515 Y89.397 E0.01682
G1 X120.859 Y77.741 E0.51832
G1 X120.859 Y77.206 E0.01682
G1 X133.050 Y89.397 E0.54210
G1 X133.585 Y89.397 E0.01682
G1 X120.859 Y76.671 E0.56588
G1 X120.859 Y76.137 E0.01682
G1 X134.120 Y89.397 E0.58966
G1 X134.120 Y88.862 E0.01681
G1 X121.394 Y76.136 E0.56589
G1 X121.929 Y76.136 E0.01682
G1 X134.120 Y88.327 E0.54211
G1 X134.120 Y87.792 E0.01682
G1 X122.464 Y76.136 E0.51832
G1 X122.998 Y76.136 E0.01682
G1 X134.120 Y87.258 E0.49454
G1 X134.120 Y86.723 E0.01682
G1 X123.533 Y76.136 E0.47076
G1 X124.068 Y76.136 E0.01682
G1 X134.120 Y86.188 E0.44698
G1 X134.120 Y85.653 E0.01682
G1 X124.603 Y76.136 E0.42320
G1 X125.138 Y76.136 E0.01682
G1 X134.120 Y85.118 E0.39941
G1 X134.120 Y84.584 E0.01682
G1 X125.672 Y76.136 E0.37563
G1 X126.207 Y76.136 E0.01682
G1 X134.120 Y84.049 E0.35185
G1 X134.120 Y83.514 E0.01682
G1 X126.742 Y76.136 E0.32807
G1 X127.277 Y76.136 E0.01682
G1 X134.120 Y82.979 E0.30429
G1 X134.120 Y82.444 E0.01682
G1 X127.812 Y76.136 E0.28051
G1 X128.346 Y76.136 E0.01682
G1 X134.120 Y81.910 E0.25672
G1 X134.120 Y81.375 E0.01682
G1 X128.881 Y76.136 E0.23294
G1 X129.416 Y76.136 E0.01682
G1 X134.120 Y80.840 E0.20916
G1 X134.120 Y80.305 E0.01682
G1 X129.951 Y76.136 E0.18538
G1 X130.486 Y76.136 E0.01682
G1 X134.120 Y79.770 E0.16160
G1 X134.120 Y79.236 E0.01682
G1 X131.020 Y76.136 E0.13782
G1 X131.555 Y76.136 E0.01682
G1 X134.120 Y78.701 E0.11403
G1 X134.120 Y78.166 E0.01682
G1 X132.090 Y76.136 E0.09025
G1 X132.625 Y76.136 E0.01682
G1 X134.120 Y77.631 E0.06647
G1 X134.120 Y77.096 E0.01682
G1 X133.160 Y76.136 E0.04269
G1 X133.694 Y76.136 E0.01682
G1 X134.289 Y76.731 E0.02645
G1 F8640
G1 X133.694 Y76.136 E-0.19425
G1 X133.160 Y76.136 E-0.12349
G1 X134.120 Y77.096 E-0.31348
G1 X134.120 Y77.631 E-0.12349
G1 X134.103 Y77.615 E-0.00529
G1 E-0.04000 F2100.00000
G1 Z0.800 F10800.000
G1 X140.368 Y75.726
G1 Z0.200
G1 E0.80000 F2100.00000
G1 F1200
G1 X154.194 Y75.726 E0.43350
G1 X154.194 Y89.552 E0.43350
G1 X140.368 Y89.552 E0.43350
G1 X140.368 Y75.786 E0.43162
G1 X139.991 Y75.349 F10800.000
G1 F1200
G1 X154.571 Y75.349 E0.45715
G1 X154.571 Y89.929 E0.45715
G1 X139.991 Y89.929 E0.45715
G1 X139.991 Y75.409 E0.45526
G1 X140.378 Y75.453 F10800.000
G1 F8640
G1 X143.283 Y75.396 E-0.76000
G1 E-0.04000 F2100.00000
G1 Z0.800 F10800.000
G1 X140.481 Y88.675
G1 Z0.200
G1 E0.80000 F2100.00000
G1 F1200
G1 X141.076 Y89.269 E0.02645
G1 X141.611 Y89.269 E0.01682
G1 X140.651 Y88.310 E0.04268
G1 X140.651 Y87.775 E0.01682
G1 X142.146 Y89.269 E0.06647
G1 X142.680 Y89.269 E0.01682
G1 X140.651 Y87.240 E0.09025
G1 X140.651 Y86.705 E0.01682
G1 X143.215 Y89.269 E0.11403
G1 X143.750 Y89.269 E0.01682
G1 X140.651 Y86.170 E0.13781
G1 X140.651 Y85.636 E0.01682
G1 X144.285 Y89.269 E0.16159
G1 X144.820 Y89.269 E0.01682
G1 X140.651 Y85.101 E0.18537
G1 X140.651 Y84.566 E0.01682
G1 X145.354 Y89.269 E0.20916
G1 X145.889 Y89.269 E0.01682
G1 X140.651 Y84.031 E0.23294
G1 X140.651 Y83.496 E0.01682
G1 X146.424 Y89.269 E0.25672
G1 X146.959 Y89.269 E0.01682
G1 X140.651 Y82.962 E0.28050
G1 X140.651 Y82.427 E0.01682
G1 X147.494 Y89.269 E0.30428
G1 X148.028 Y89.269 E0.01682
G1 X140.651 Y81.892 E0.32806
G1 X140.651 Y81.357 E0.01682
G1 X148.563 Y89.269 E0.35185
G1 X149.098 Y89.269 E0.01682
G1 X140.651 Y80.822 E0.37563
G1 X140.651 Y80.288 E0.01682
G1 X149.633 Y89.269 E0.39941
G1 X150.168 Y89.269 E0.01682
G1 X140.651 Y79.753 E0.42319
G1 X140.651 Y79.218 E0.01682
G1 X150.702 Y89.269 E0.44697
G1 X151.237 Y89.269 E0.01682
G1 X140.651 Y78.683 E0.47075
G1 X140.651 Y78.148 E0.01682
G1 X151.772 Y89.269 E0.49454
G1 X152.307 Y89.269 E0.01682
G1 X140.651 Y77.614 E0.51832
G1 X140.651 Y77.079 E0.01682
G1 X152.842 Y89.269 E0.54210
G1 X153.376 Y89.269 E0.01682
G1 X140.651 Y76.544 E0.56588
G1 X140.651 Y76.009 E0.01682
G1 X153.911 Y89.269 E0.58966
G1 X153.911 Y88.735 E0.01681
G1 X141.186 Y76.009 E0.56589
G1 X141.721 Y76.009 E0.01682
G1 X153.911 Y88.200 E0.54211
G1 X153.911 Y87.665 E0.01682
G1 X142.255 Y76.009 E0.51832
G1 X142.790 Y76.009 E0.01682
G1 X153.911 Y87.130 E0.49454
G1 X153.911 Y86.595 E0.01682
G1 X143.325 Y76.009 E0.47076
G1 X143.860 Y76.009 E0.01682
G1 X153.911 Y86.061 E0.44698
G1 X153.911 Y85.526 E0.01682
G1 X144.395 Y76.009 E0.42320
G1 X144.929 Y76.009 E0.01682
G1 X153.911 Y84.991 E0.39941
G1 X153.911 Y84.456 E0.01682
G1 X145.464 Y76.009 E0.37563
G1 X145.999 Y76.009 E0.01682
G1 X153.911 Y83.921 E0.35185
G1 X153.911 Y83.387 E0.01682
G1 X146.534 Y76.009 E0.32807
G1 X147.069 Y76.009 E0.01682
G1 X153.911 Y82.852 E0.30429
G1 X153.911 Y82.317 E0.01682
G1 X147.603 Y76.009 E0.28051
G1 X148.138 Y76.009 E0.01682
G1 X153.911 Y81.782 E0.25672
G1 X153.911 Y81.248 E0.01682
G1 X148.673 Y76.009 E0.23294
G1 X149.208 Y76.009 E0.01682
G1 X153.911 Y80.713 E0.20916
G1 X153.911 Y80.178 E0.01682
G1 X149.743 Y76.009 E0.18538
G1 X150.277 Y76.009 E0.01682
G1 X153.911 Y79.643 E0.16160
G1 X153.911 Y79.108 E0.01682
G1 X150.812 Y76.009 E0.13782
G1 X151.347 Y76.009 E0.01682
G1 X153.911 Y78.574 E0.11403
G1 X153.911 Y78.039 E0.01682
G1 X151.882 Y76.009 E0.09025
G1 X152.417 Y76.009 E0.01682
G1 X153.911 Y77.504 E0.06647
G1 X153.911 Y76.969 E0.01682
G1 X152.951 Y76.009 E0.04269
G1 X153.486 Y76.009 E0.01682
G1 X154.081 Y76.604 E0.02645
G1 F8640
G1 X153.486 Y76.009 E-0.19425
G1 X152.951 Y76.009 E-0.12349
G1 X153.911 Y76.969 E-0.31348
G1 X153.911 Y77.504 E-0.12349
G1 X153.895 Y77.488 E-0.00529
G1 E-0.04000 F2100.00000
G1 Z0.800 F10800.000
G1 X160.596 Y75.745
G1 Z0.200
G1 E0.80000 F2100.00000
G1 F1200
G1 X174.422 Y75.745 E0.43350
G1 X174.422 Y89.571 E0.43350
G1 X160.596 Y89.571 E0.43350
M73 P2 R82
G1 X160.596 Y75.805 E0.43162
G1 X160.219 Y75.368 F10800.000
G1 F1200
G1 X174.799 Y75.368 E0.45715
G1 X174.799 Y89.948 E0.45715
G1 X160.219 Y89.948 E0.45715
G1 X160.219 Y75.428 E0.45526
G1 X160.605 Y75.472 F10800.000
G1 F8640
G1 X163.510 Y75.415 E-0.76000
G1 E-0.04000 F2100.00000
G1 Z0.800 F10800.000
G1 X160.709 Y88.694
G1 Z0.200
G1 E0.80000 F2100.00000
G1 F1200
G1 X161.304 Y89.288 E0.02645
G1 X161.838 Y89.288 E0.01682
G1 X160.878 Y88.329 E0.04268
G1 X160.878 Y87.794 E0.01682
G1 X162.373 Y89.288 E0.06647
G1 X162.908 Y89.288 E0.01682
G1 X160.878 Y87.259 E0.09025
G1 X160.878 Y86.724 E0.01682
G1 X163.443 Y89.288 E0.11403
G1 X163.978 Y89.288 E0.01682
G1 X160.878 Y86.189 E0.13781
G1 X160.878 Y85.655 E0.01682
G1 X164.512 Y89.288 E0.16159
G1 X165.047 Y89.288 E0.01682
G1 X160.878 Y85.120 E0.18537
G1 X160.878 Y84.585 E0.01682
G1 X165.582 Y89.288 E0.20916
G1 X166.117 Y89.288 E0.01682
G1 X160.878 Y84.050 E0.23294
G1 X160.878 Y83.515 E0.01682
G1 X166.652 Y89.288 E0.25672
G1 X167.186 Y89.288 E0.01682
G1 X160.878 Y82.981 E0.28050
G1 X160.878 Y82.446 E0.01682
G1 X167.721 Y89.288 E0.30428
G1 X168.256 Y89.288 E0.01682
G1 X160.878 Y81.911 E0.32806
G1 X160.878 Y81.376 E0.01682
G1 X168.791 Y89.288 E0.35185
G1 X169.325 Y89.288 E0.01682
G1 X160.878 Y80.841 E0.37563
G1 X160.878 Y80.307 E0.01682
G1 X169.860 Y89.288 E0.39941
G1 X170.395 Y89.288 E0.01682
G1 X160.878 Y79.772 E0.42319
G1 X160.878 Y79.237 E0.01682
G1 X170.930 Y89.288 E0.44697
G1 X171.465 Y89.288 E0.01682
G1 X160.878 Y78.702 E0.47075
G1 X160.878 Y78.167 E0.01682
G1 X171.999 Y89.288 E0.49454
G1 X172.534 Y89.288 E0.01682
G1 X160.878 Y77.633 E0.51832
G1 X160.878 Y77.098 E0.01682
G1 X173.069 Y89.288 E0.54210
G1 X173.604 Y89.288 E0.01682
G1 X160.878 Y76.563 E0.56588
G1 X160.878 Y76.028 E0.01682
G1 X174.139 Y89.288 E0.58966
G1 X174.139 Y88.754 E0.01681
G1 X161.413 Y76.028 E0.56589
G1 X161.948 Y76.028 E0.01682
G1 X174.139 Y88.219 E0.54211
G1 X174.139 Y87.684 E0.01682
G1 X162.483 Y76.028 E0.51832
G1 X163.018 Y76.028 E0.01682
G1 X174.139 Y87.149 E0.49454
G1 X174.139 Y86.615 E0.01682
G1 X163.552 Y76.028 E0.47076
G1 X164.087 Y76.028 E0.01682
G1 X174.139 Y86.080 E0.44698
G1 X174.139 Y85.545 E0.01682
G1 X164.622 Y76.028 E0.42320
G1 X165.157 Y76.028 E0.01682
G1 X174.139 Y85.010 E0.39941
G1 X174.139 Y84.475 E0.01682
G1 X165.692 Y76.028 E0.37563
G1 X166.226 Y76.028 E0.01682
G1 X174.139 Y83.941 E0.35185
G1 X174.139 Y83.406 E0.01682
G1 X166.761 Y76.028 E0.32807
G1 X167.296 Y76.028 E0.01682
G1 X174.139 Y82.871 E0.30429
G1 X174.139 Y82.336 E0.01682
G1 X167.831 Y76.028 E0.28051
G1 X168.366 Y76.028 E0.01682
G1 X174.139 Y81.801 E0.25672
G1 X174.139 Y81.267 E0.01682
G1 X168.900 Y76.028 E0.23294
G1 X169.435 Y76.028 E0.01682
