; generated by PrusaSlicer 2.1.0+win64 on 2020-02-29 at 13:55:35 UTC

; 

; external perimeters extrusion width = 0.45mm
; perimeters extrusion width = 0.45mm
; infill extrusion width = 0.45mm
; solid infill extrusion width = 0.45mm
; top infill extrusion width = 0.45mm
; first layer extrusion width = 0.42mm

M73 P0 R73
M201 X9000 Y9000 Z500 E10000 ; sets maximum accelerations, mm/sec^2
M203 X500 Y500 Z12 E120 ; sets maximum feedrates, mm/sec
M204 P2000 R1500 T2000 ; sets acceleration (P, T) and retract acceleration (R), mm/sec^2
M205 X10.00 Y10.00 Z0.20 E2.50 ; sets the jerk limits, mm/sec
M205 S0 T0 ; sets the minimum extruding and travel feed rate, mm/sec
M107
M862.3 P "MK2S" ; printer model check
M862.1 P0.4 ; nozzle diameter check
M115 U3.2.3 ; tell printer latest fw version
G90 ; use absolute coordinates
M83 ; extruder relative mode
M204 S2000 T1500 ; MK2 firmware only supports the old M204 format
M104 S215 ; set extruder temp
M140 S60 ; set bed temp
M190 S60 ; wait for bed temp
M109 S215 ; wait for extruder temp
G28 W ; home all without mesh bed level
G80 ; mesh bed leveling
G1 Y-3.0 F1000.0 ; go outside print area
G92 E0.0
G1 X60.0 E9.0  F1000.0 ; intro line
M73 P0 R73
G1 X100.0 E12.5 F1000.0 ; intro line
G92 E0.0
G21 ; set units to millimeters
G90 ; use absolute coordinates
M83 ; use relative distances for extrusion
M900 K30 ; Filament gcode
;BEFORE_LAYER_CHANGE
G92 E0.0
;0.2


G1 E-0.80000 F2100.00000
G1 Z0.600 F10800.000
;AFTER_LAYER_CHANGE
;0.2
G1 X9.012 Y46.290
G1 Z0.200
G1 E0.80000 F2100.00000
M204 S1000
G1 F1200
G1 X22.189 Y42.625 E0.42884
G1 X22.727 Y42.548 E0.01703
G1 X227.707 Y42.548 E6.42702
G1 X228.271 Y42.622 E0.01783
G1 X241.235 Y46.180 E0.42151
G1 X241.769 Y46.463 E0.01896
G1 X242.206 Y46.882 E0.01896
G1 X242.511 Y47.404 E0.01896
G1 X242.661 Y47.990 E0.01896
G1 X242.675 Y64.624 E0.52157
G1 X241.770 Y154.853 E2.82919
G1 X241.681 Y155.432 E0.01839
G1 X241.438 Y155.971 E0.01851
G1 X241.061 Y156.425 E0.01851
G1 X240.580 Y156.760 E0.01839
G1 X240.098 Y156.939 E0.01612
G1 X239.584 Y157.001 E0.01623
G1 X9.100 Y157.001 E7.22666
G1 X8.508 Y156.917 E0.01873
G1 X7.964 Y156.679 E0.01862
G1 X7.502 Y156.300 E0.01873
G1 X7.161 Y155.814 E0.01862
G1 X6.981 Y155.332 E0.01612
G1 X6.919 Y154.818 E0.01623
G1 X6.960 Y78.007 E2.40836
G1 X7.828 Y48.096 E0.93824
G1 X7.937 Y47.542 E0.01771
G1 X8.182 Y47.037 E0.01760
G1 X8.550 Y46.608 E0.01771
G1 X8.963 Y46.324 E0.01572
G1 F8640
G1 X12.132 Y45.437 E-0.76000
G1 E-0.04000 F2100.00000
G1 Z0.800 F10800.000
G1 X233.570 Y141.419
G1 Z0.200
G1 E0.80000 F2100.00000
G1 F1200
G1 X233.904 Y140.933 E0.01848
G1 X234.357 Y140.545 E0.01870
G1 X234.933 Y140.287 E0.01980
G1 X235.462 Y140.188 E0.01689
G1 X236.050 Y140.234 E0.01847
G1 X236.612 Y140.433 E0.01870
G1 X237.124 Y140.803 E0.01980
G1 X237.474 Y141.212 E0.01689
G1 X237.728 Y141.744 E0.01847
G1 X237.836 Y142.323 E0.01847
G1 X237.790 Y142.911 E0.01847
G1 X237.593 Y143.466 E0.01847
G1 X237.260 Y143.952 E0.01848
G1 X236.812 Y144.335 E0.01848
G1 X236.280 Y144.589 E0.01848
G1 X235.701 Y144.696 E0.01847
G1 X235.113 Y144.650 E0.01848
G1 X234.558 Y144.454 E0.01847
G1 X234.072 Y144.121 E0.01848
G1 X233.689 Y143.673 E0.01847
G1 X233.435 Y143.141 E0.01847
G1 X233.328 Y142.562 E0.01847
G1 X233.374 Y141.974 E0.01847
G1 X233.550 Y141.475 E0.01659
G1 X233.906 Y141.601 F10800.000
G1 F1200
G1 X234.186 Y141.187 E0.01568
G1 X234.561 Y140.867 E0.01544
G1 X235.046 Y140.649 E0.01668
G1 X235.482 Y140.568 E0.01392
G1 X235.971 Y140.606 E0.01536
G1 X236.435 Y140.771 E0.01544
G1 X236.867 Y141.082 E0.01668
G1 X237.155 Y141.419 E0.01392
G1 X237.366 Y141.862 E0.01536
G1 X237.456 Y142.343 E0.01536
G1 X237.418 Y142.832 E0.01536
G1 X237.254 Y143.294 E0.01536
G1 X236.977 Y143.698 E0.01536
G1 X236.605 Y144.016 E0.01536
G1 X236.162 Y144.227 E0.01536
G1 X235.681 Y144.317 E0.01536
G1 X235.192 Y144.278 E0.01536
G1 X234.730 Y144.115 E0.01536
G1 X234.326 Y143.838 E0.01536
G1 X234.008 Y143.465 E0.01536
G1 X233.797 Y143.023 E0.01536
G1 X233.707 Y142.542 E0.01536
G1 X233.746 Y142.053 E0.01536
G1 X233.886 Y141.658 E0.01316
G1 X233.686 Y141.266 F10800.000
G1 F8640
G1 X234.186 Y141.187 E-0.12889
G1 X234.561 Y140.867 E-0.11371
G1 X235.046 Y140.649 E-0.12285
G1 X235.482 Y140.568 E-0.10252
G1 X235.971 Y140.606 E-0.11313
G1 X236.435 Y140.771 E-0.11371
G1 X236.664 Y140.936 E-0.06519
G1 E-0.04000 F2100.00000
G1 Z0.800 F10800.000
G1 X126.602 Y142.442
G1 Z0.200
G1 E0.80000 F2100.00000
G1 F1200
G1 X126.526 Y143.023 E0.01835
G1 X126.302 Y143.564 E0.01835
G1 X125.945 Y144.028 E0.01835
G1 X125.481 Y144.384 E0.01835
G1 X124.934 Y144.611 E0.01857
G1 X124.310 Y144.678 E0.01966
G1 X123.779 Y144.608 E0.01678
G1 X123.239 Y144.384 E0.01835
G1 X122.774 Y144.028 E0.01835
G1 X122.418 Y143.564 E0.01835
G1 X122.194 Y143.023 E0.01835
G1 X122.118 Y142.442 E0.01835
G1 X122.194 Y141.862 E0.01835
G1 X122.418 Y141.321 E0.01835
G1 X122.774 Y140.857 E0.01835
G1 X123.244 Y140.496 E0.01857
G1 X123.829 Y140.270 E0.01966
G1 X124.360 Y140.200 E0.01678
G1 X124.940 Y140.277 E0.01835
G1 X125.481 Y140.501 E0.01835
G1 X125.945 Y140.857 E0.01835
G1 X126.302 Y141.321 E0.01835
G1 X126.526 Y141.862 E0.01835
G1 X126.594 Y142.383 E0.01647
G1 X126.220 Y142.432 F10800.000
G1 F1200
G1 X126.158 Y142.924 E0.01555
G1 X125.972 Y143.373 E0.01524
G1 X125.676 Y143.759 E0.01524
G1 X125.291 Y144.055 E0.01524
G1 X124.839 Y144.242 E0.01532
G1 X124.315 Y144.298 E0.01655
G1 X123.878 Y144.241 E0.01381
G1 X123.429 Y144.055 E0.01524
G1 X123.043 Y143.759 E0.01524
G1 X122.747 Y143.373 E0.01524
G1 X122.561 Y142.924 E0.01524
G1 X122.498 Y142.442 E0.01524
G1 X122.561 Y141.961 E0.01524
G1 X122.747 Y141.512 E0.01524
G1 X123.043 Y141.126 E0.01524
G1 X123.431 Y140.829 E0.01532
G1 X123.923 Y140.638 E0.01655
G1 X124.360 Y140.581 E0.01381
G1 X124.842 Y140.644 E0.01524
G1 X125.291 Y140.830 E0.01524
G1 X125.676 Y141.126 E0.01524
G1 X125.972 Y141.512 E0.01524
G1 X126.158 Y141.961 E0.01524
G1 X126.212 Y142.373 E0.01303
G1 X126.567 Y142.631 F10800.000
G1 F8640
G1 X126.158 Y142.924 E-0.12799
G1 X125.972 Y143.373 E-0.11223
G1 X125.676 Y143.759 E-0.11222
G1 X125.291 Y144.055 E-0.11223
G1 X124.839 Y144.242 E-0.11281
G1 X124.315 Y144.298 E-0.12186
G1 X124.054 Y144.264 E-0.06066
G1 E-0.04000 F2100.00000
G1 Z0.800 F10800.000
G1 X15.337 Y142.206
G1 Z0.200
G1 E0.80000 F2100.00000
G1 F1200
G1 X15.322 Y142.791 E0.01835
G1 X15.157 Y143.352 E0.01835
G1 X14.851 Y143.852 E0.01835
G1 X14.427 Y144.255 E0.01835
G1 X13.907 Y144.538 E0.01857
G1 X13.294 Y144.671 E0.01966
G1 X12.759 Y144.657 E0.01678
G1 X12.197 Y144.492 E0.01835
G1 X11.698 Y144.186 E0.01835
G1 X11.295 Y143.762 E0.01835
G1 X11.015 Y143.248 E0.01835
G1 X10.878 Y142.679 E0.01835
G1 X10.892 Y142.094 E0.01835
G1 X11.058 Y141.533 E0.01835
G1 X11.363 Y141.033 E0.01835
G1 X11.793 Y140.625 E0.01857
G1 X12.350 Y140.338 E0.01966
G1 X12.871 Y140.213 E0.01678
G1 X13.456 Y140.228 E0.01835
G1 X14.024 Y140.395 E0.01857
G1 X14.551 Y140.735 E0.01966
G1 X14.920 Y141.123 E0.01678
G1 X15.200 Y141.637 E0.01835
G1 X15.323 Y142.147 E0.01647
G1 X14.956 Y142.236 F10800.000
G1 F1200
G1 X14.946 Y142.732 E0.01555
G1 X14.809 Y143.198 E0.01524
G1 X14.555 Y143.613 E0.01524
G1 X14.203 Y143.948 E0.01524
G1 X13.774 Y144.181 E0.01532
G1 X13.258 Y144.293 E0.01655
G1 X12.818 Y144.282 E0.01381
G1 X12.352 Y144.144 E0.01524
G1 X11.937 Y143.891 E0.01524
G1 X11.602 Y143.538 E0.01524
G1 X11.370 Y143.112 E0.01524
G1 X11.256 Y142.639 E0.01524
G1 X11.268 Y142.153 E0.01524
G1 X11.406 Y141.687 E0.01524
G1 X11.659 Y141.272 E0.01524
G1 X12.013 Y140.936 E0.01532
G1 X12.483 Y140.694 E0.01655
G1 X12.911 Y140.591 E0.01381
G1 X13.397 Y140.603 E0.01524
G1 X13.865 Y140.741 E0.01532
G1 X14.309 Y141.027 E0.01655
G1 X14.612 Y141.346 E0.01381
G1 X14.845 Y141.773 E0.01524
G1 X14.942 Y142.177 E0.01303
G1 X15.322 Y142.397 F10800.000
G1 F8640
G1 X14.946 Y142.732 E-0.12799
G1 X14.809 Y143.198 E-0.11223
G1 X14.555 Y143.613 E-0.11223
G1 X14.203 Y143.948 E-0.11223
G1 X13.774 Y144.181 E-0.11281
G1 X13.258 Y144.293 E-0.12186
G1 X12.996 Y144.286 E-0.06066
G1 E-0.04000 F2100.00000
G1 Z0.800 F10800.000
G1 X29.773 Y149.355
G1 Z0.200
G1 E0.80000 F2100.00000
G1 F1200
G1 X29.773 Y153.530 E0.13088
G1 X66.947 Y153.530 E1.16557
G1 X66.947 Y149.355 E0.13088
G1 X60.447 Y149.355 E0.20380
G1 X60.447 Y135.530 E0.43350
G1 X74.273 Y135.530 E0.43350
G1 X74.273 Y149.355 E0.43350
G1 X67.773 Y149.355 E0.20380
G1 X67.773 Y153.530 E0.13088
G1 X104.947 Y153.530 E1.16557
G1 X104.947 Y149.355 E0.13088
G1 X98.447 Y149.355 E0.20380
G1 X98.447 Y135.530 E0.43350
G1 X112.273 Y135.530 E0.43350
G1 X112.273 Y149.355 E0.43350
G1 X105.773 Y149.355 E0.20380
G1 X105.773 Y153.530 E0.13088
G1 X120.947 Y153.530 E0.47578
G1 X120.947 Y139.030 E0.45464
G1 X127.773 Y139.030 E0.21402
G1 X127.773 Y153.530 E0.45464
G1 X142.947 Y153.530 E0.47578
G1 X142.947 Y149.355 E0.13088
M73 P1 R72
G1 X136.447 Y149.355 E0.20380
G1 X136.447 Y135.530 E0.43350
G1 X150.273 Y135.530 E0.43350
G1 X150.273 Y149.355 E0.43350
G1 X143.773 Y149.355 E0.20380
G1 X143.773 Y153.530 E0.13088
G1 X180.991 Y153.530 E1.16696
G1 X180.991 Y149.355 E0.13088
G1 X174.491 Y149.355 E0.20380
G1 X174.491 Y135.530 E0.43350
G1 X188.317 Y135.530 E0.43350
G1 X188.317 Y149.355 E0.43350
G1 X181.817 Y149.355 E0.20380
G1 X181.817 Y153.530 E0.13088
G1 X218.886 Y153.530 E1.16226
G1 X218.886 Y149.355 E0.13088
G1 X212.386 Y149.355 E0.20380
G1 X212.386 Y135.530 E0.43350
G1 X226.211 Y135.530 E0.43350
G1 X226.211 Y149.355 E0.43350
G1 X219.711 Y149.355 E0.20380
G1 X219.711 Y153.530 E0.13088
G1 X232.169 Y153.530 E0.39059
G1 X232.169 Y139.030 E0.45464
G1 X238.995 Y139.030 E0.21402
G1 X238.995 Y154.225 E0.47646
G1 X9.694 Y154.225 E7.18955
G1 X9.694 Y139.030 E0.47645
G1 X16.520 Y139.030 E0.21402
G1 X16.520 Y153.530 E0.45464
G1 X28.947 Y153.530 E0.38963
G1 X28.947 Y149.355 E0.13088
G1 X22.447 Y149.355 E0.20380
G1 X22.447 Y135.530 E0.43350
G1 X36.273 Y135.530 E0.43350
G1 X36.273 Y149.355 E0.43350
G1 X29.833 Y149.355 E0.20192
G1 X30.150 Y149.732 F10800.000
G1 F1200
G1 X30.150 Y153.152 E0.10723
G1 X66.570 Y153.152 E1.14192
G1 X66.570 Y149.732 E0.10723
G1 X60.070 Y149.732 E0.20380
G1 X60.070 Y135.152 E0.45715
G1 X74.650 Y135.152 E0.45715
G1 X74.650 Y149.732 E0.45715
G1 X68.150 Y149.732 E0.20380
G1 X68.150 Y153.152 E0.10723
G1 X104.570 Y153.152 E1.14192
G1 X104.570 Y149.732 E0.10723
G1 X98.070 Y149.732 E0.20380
G1 X98.070 Y135.152 E0.45715
G1 X112.650 Y135.152 E0.45715
G1 X112.650 Y149.732 E0.45715
G1 X106.150 Y149.732 E0.20380
G1 X106.150 Y153.152 E0.10723
G1 X120.570 Y153.152 E0.45213
G1 X120.570 Y138.652 E0.45464
G1 X128.150 Y138.652 E0.23767
G1 X128.150 Y153.152 E0.45464
G1 X142.570 Y153.152 E0.45213
G1 X142.570 Y149.732 E0.10723
G1 X136.070 Y149.732 E0.20380
G1 X136.070 Y135.152 E0.45715
G1 X150.650 Y135.152 E0.45715
G1 X150.650 Y149.732 E0.45715
G1 X144.150 Y149.732 E0.20380
G1 X144.150 Y153.152 E0.10723
G1 X180.614 Y153.152 E1.14331
G1 X180.614 Y149.732 E0.10723
G1 X174.114 Y149.732 E0.20380
G1 X174.114 Y135.152 E0.45715
G1 X188.694 Y135.152 E0.45715
G1 X188.694 Y149.732 E0.45715
G1 X182.194 Y149.732 E0.20380
G1 X182.194 Y153.152 E0.10723
G1 X218.509 Y153.152 E1.13861
G1 X218.509 Y149.732 E0.10723
G1 X212.009 Y149.732 E0.20380
G1 X212.009 Y135.152 E0.45715
G1 X226.589 Y135.152 E0.45715
G1 X226.589 Y149.732 E0.45715
G1 X220.089 Y149.732 E0.20380
G1 X220.089 Y153.152 E0.10723
G1 X231.792 Y153.152 E0.36694
G1 X231.792 Y138.652 E0.45464
M73 P2 R71
G1 X239.372 Y138.652 E0.23767
G1 X239.372 Y154.602 E0.50010
G1 X9.317 Y154.602 E7.21319
G1 X9.317 Y138.652 E0.50010
G1 X16.897 Y138.652 E0.23767
G1 X16.897 Y153.152 E0.45464
G1 X28.570 Y153.152 E0.36598
G1 X28.570 Y149.732 E0.10723
G1 X22.070 Y149.732 E0.20380
G1 X22.070 Y135.152 E0.45715
G1 X36.650 Y135.152 E0.45715
G1 X36.650 Y149.732 E0.45715
G1 X30.210 Y149.732 E0.20192
G1 X29.779 Y149.882 F10800.000
G1 F8640
G1 X30.152 Y153.023 E-0.76000
G1 E-0.04000 F2100.00000
G1 Z0.800 F10800.000
G1 X28.672 Y149.242
G1 Z0.200
G1 E0.80000 F2100.00000
G1 F1200
G1 X22.730 Y143.300 E0.26426
G1 X22.730 Y143.834 E0.01682
G1 X27.968 Y149.073 E0.23294
G1 X27.433 Y149.073 E0.01682
G1 X22.730 Y144.369 E0.20916
G1 X22.730 Y144.904 E0.01682
G1 X26.898 Y149.073 E0.18537
G1 X26.363 Y149.073 E0.01682
G1 X22.730 Y145.439 E0.16159
G1 X22.730 Y145.974 E0.01682
G1 X25.829 Y149.073 E0.13781
G1 X25.294 Y149.073 E0.01682
G1 X22.730 Y146.508 E0.11403
G1 X22.730 Y147.043 E0.01682
G1 X24.759 Y149.073 E0.09025
G1 X24.224 Y149.073 E0.01682
G1 X22.730 Y147.578 E0.06647
G1 X22.730 Y148.113 E0.01682
G1 X23.689 Y149.073 E0.04268
G1 X23.155 Y149.073 E0.01682
G1 X22.560 Y148.478 E0.02645
G1 F8640
G1 X23.155 Y149.073 E-0.19421
G1 X23.689 Y149.073 E-0.12349
G1 X22.730 Y148.113 E-0.31344
G1 X22.730 Y147.578 E-0.12349
G1 X22.746 Y147.594 E-0.00538
G1 E-0.04000 F2100.00000
G1 Z0.800 F10800.000
G1 X16.407 Y149.657
G1 Z0.200
G1 E0.80000 F2100.00000
G1 F1200
G1 X9.977 Y143.227 E0.28931
G1 X9.977 Y143.768 E0.01722
G1 X16.237 Y150.028 E0.28167
G1 X16.237 Y150.569 E0.01722
G1 X9.977 Y144.309 E0.28167
G1 X9.977 Y144.850 E0.01722
G1 X16.237 Y151.110 E0.28167
G1 X16.237 Y151.652 E0.01722
G1 X9.977 Y145.391 E0.28167
G1 X9.977 Y145.932 E0.01722
G1 X16.237 Y152.193 E0.28167
G1 X16.237 Y152.734 E0.01722
G1 X9.977 Y146.473 E0.28167
G1 X9.977 Y147.015 E0.01722
G1 X16.237 Y153.275 E0.28167
G1 X16.237 Y153.414 E0.00442
G1 X16.049 Y153.414 E0.00600
G1 X16.049 Y153.627 E0.00680
G1 X9.977 Y147.556 E0.27319
G1 X9.977 Y148.097 E0.01722
G1 X15.823 Y153.943 E0.26302
G1 X15.282 Y153.943 E0.01722
G1 X9.977 Y148.638 E0.23868
G1 X9.977 Y149.179 E0.01722
G1 X14.741 Y153.943 E0.21433
G1 X14.199 Y153.943 E0.01722
G1 X9.977 Y149.720 E0.18998
G1 X9.977 Y150.261 E0.01722
G1 X13.658 Y153.943 E0.16563
G1 X13.117 Y153.943 E0.01722
G1 X9.977 Y150.802 E0.14129
G1 X9.977 Y151.344 E0.01722
G1 X12.576 Y153.943 E0.11694
G1 X12.035 Y153.943 E0.01722
G1 X9.977 Y151.885 E0.09259
G1 X9.977 Y152.426 E0.01722
G1 X11.494 Y153.943 E0.06825
G1 X10.953 Y153.943 E0.01722
G1 X9.977 Y152.967 E0.04390
G1 X9.977 Y153.508 E0.01722
G1 X10.581 Y154.112 E0.02719
G1 F8640
G1 X9.977 Y153.508 E-0.19732
G1 X9.977 Y152.967 E-0.12495
G1 X10.953 Y153.943 E-0.31860
G1 X11.469 Y153.943 E-0.11914
G1 E-0.04000 F2100.00000
G1 Z0.800 F10800.000
G1 X16.332 Y153.877
G1 Z0.200
G1 E0.80000 F2100.00000
G1 F1200
G1 X29.135 Y153.877 E0.33937
G1 X29.584 Y153.877 F10800.000
G1 F1200
G1 X67.135 Y153.877 E0.99531
G1 X67.584 Y153.877 F10800.000
G1 F1200
G1 X105.135 Y153.877 E0.99532
G1 X105.584 Y153.877 F10800.000
G1 F1200
G1 X121.135 Y153.877 E0.41220
G1 X122.015 Y154.112 F10800.000
G1 F1200
G1 X121.230 Y153.327 E0.03504
G1 X121.230 Y152.790 E0.01692
G1 X122.382 Y153.943 E0.05140
G1 X122.918 Y153.943 E0.01692
G1 X121.230 Y152.254 E0.07532
G1 X121.230 Y151.717 E0.01692
G1 X123.455 Y153.943 E0.09925
G1 X123.991 Y153.943 E0.01692
G1 X121.230 Y151.181 E0.12317
G1 X121.230 Y150.645 E0.01692
G1 X124.528 Y153.943 E0.14710
G1 X125.064 Y153.943 E0.01692
G1 X121.230 Y150.108 E0.17102
G1 X121.230 Y149.572 E0.01692
G1 X125.600 Y153.943 E0.19495
G1 X126.137 Y153.943 E0.01692
G1 X121.230 Y149.035 E0.21887
G1 X121.230 Y148.499 E0.01692
G1 X126.673 Y153.943 E0.24280
G1 X127.210 Y153.943 E0.01692
G1 X121.230 Y147.963 E0.26672
G1 X121.230 Y147.426 E0.01692
G1 X127.301 Y153.498 E0.27081
G1 X127.301 Y153.414 E0.00265
G1 X127.490 Y153.414 E0.00595
G1 X127.490 Y153.150 E0.00832
G1 X121.230 Y146.890 E0.27922
G1 X121.230 Y146.353 E0.01692
G1 X127.490 Y152.614 E0.27922
G1 X127.490 Y152.077 E0.01692
G1 X121.230 Y145.817 E0.27922
G1 X121.230 Y145.281 E0.01692
G1 X127.490 Y151.541 E0.27922
G1 X127.490 Y151.004 E0.01692
G1 X121.230 Y144.744 E0.27922
G1 X121.230 Y144.208 E0.01692
G1 X127.490 Y150.468 E0.27922
G1 X127.490 Y149.932 E0.01692
G1 X121.230 Y143.671 E0.27922
G1 X121.230 Y143.135 E0.01692
G1 X127.660 Y149.565 E0.28679
G1 F8640
G1 X125.332 Y147.237 E-0.76000
G1 E-0.04000 F2100.00000
G1 Z0.800 F10800.000
G1 X127.584 Y153.877
G1 Z0.200
G1 E0.80000 F2100.00000
G1 F1200
G1 X143.135 Y153.877 E0.41220
G1 X143.584 Y153.877 F10800.000
G1 F1200
G1 X181.180 Y153.877 E0.99650
G1 X181.628 Y153.877 F10800.000
G1 F1200
G1 X219.074 Y153.877 E0.99253
G1 X219.523 Y153.877 F10800.000
G1 F1200
